6/img/social-telegram.svg

<svg width="24" height="24" viewBox="0 0 24 24" fill="none" xmlns="http://www.w3.org/2000/svg">
<path d="M22.4393 4.62225L19.2705 19.566C19.0313 20.6205 18.408 20.883 17.5223 20.3865L12.6938 16.8285L10.3643 19.0695C10.1063 19.3275 9.891 19.5428 9.39375 19.5428L9.741 14.6258L18.6893 6.54C19.0785 6.1935 18.6045 6.00075 18.0848 6.348L7.02225 13.314L2.25976 11.823C1.22401 11.4998 1.20526 10.7873 2.47576 10.29L21.1035 3.11325C21.966 2.79 22.7205 3.30525 22.4393 4.623V4.62225Z" fill="white"/>
</svg>

<svg width="24" height="24" fill="none" xmlns="http://www.w3.org/2000/svg"><path d="m22.44 4.622-3.17 14.944c-.239 1.055-.862 1.317-1.748.82l-4.828-3.558-2.33 2.242c-.258.258-.473.473-.97.473l.347-4.917 8.948-8.086c.39-.346-.084-.54-.604-.192L7.022 13.314 2.26 11.823c-1.036-.323-1.055-1.036.216-1.533l18.627-7.177c.863-.323 1.617.192 1.336 1.51Z" fill="#fff"/></svg>
